dist/img/picture/brands/ssab.svg

<svg width="63" height="21" viewBox="0 0 63 21" fill="none" xmlns="http://www.w3.org/2000/svg">
<path d="M10.2431 2.91341H9.49658C7.25864 2.91341 5.52632 3.84256 5.52632 5.86411C5.52632 7.17509 6.45881 7.74883 7.49825 8.24074L9.94998 9.33342C11.9747 10.2355 13.7079 11.6294 13.7079 14.4979C13.7079 18.5954 10.6958 20.972 5.89914 20.972H5.01919C3.76668 20.972 2.0085 20.6447 0.756033 20.2347C0.276025 20.098 0.0094986 19.7975 0.0094986 19.3327C0.0094986 19.2507 0.0094986 19.1421 0.248849 17.9946C0.355892 17.5305 0.622669 17.2292 0.995433 17.2292C1.10248 17.2292 1.20866 17.2292 1.34183 17.284C2.51468 17.7489 4.27361 18.1033 5.52632 18.1033H6.21841C8.43074 18.1033 10.1098 16.9838 10.1098 14.8255C10.1098 13.3226 9.07028 12.6673 7.71127 12.0664L5.3922 11.0276C3.87367 10.3174 1.98137 8.81451 1.98137 6.11056C1.98137 2.12136 5.47283 0.0446033 9.86935 0.0446033H10.4833C11.5484 0.0446033 13.1212 0.291056 14.3475 0.728094C14.8537 0.891867 15.1205 1.16434 15.1205 1.62938C15.1205 1.711 15.1205 1.79302 14.9071 2.8586C14.8002 3.32364 14.5072 3.678 14.081 3.678C13.974 3.678 13.8941 3.65092 13.7608 3.5969C12.7212 3.18694 11.2291 2.91341 10.2431 2.91341Z" fill="#123167"/>
<path d="M24.1117 2.91341H23.3659C21.1274 2.91341 19.3949 3.84256 19.3949 5.86411C19.3949 7.17509 20.3274 7.74883 21.3669 8.24074L23.8186 9.33342C25.8442 10.2355 27.5767 11.6294 27.5767 14.4979C27.5767 18.5954 24.5651 20.972 19.7677 20.972H18.8888C17.636 20.972 15.8772 20.6447 14.6246 20.2347C14.1449 20.098 13.878 19.7975 13.878 19.3327C13.878 19.2507 13.878 19.1421 14.1184 17.9946C14.2245 17.5305 14.4913 17.2292 14.864 17.2292C14.9711 17.2292 15.0774 17.2292 15.2107 17.284C16.3834 17.7489 18.1422 18.1033 19.3949 18.1033H20.088C22.2993 18.1033 23.9784 16.9838 23.9784 14.8255C23.9784 13.3226 22.9396 12.6673 21.5801 12.0664L19.2615 11.0276C17.7423 10.3174 15.85 8.81451 15.85 6.11056C15.85 2.12136 19.3414 0.0446033 23.7389 0.0446033H24.3511C25.418 0.0446033 26.9898 0.291056 28.2161 0.728094C28.7222 0.891867 28.989 1.16434 28.989 1.62938C28.989 1.711 28.989 1.79302 28.7758 2.8586C28.6687 3.32364 28.3759 3.678 27.9496 3.678C27.8425 3.678 27.7626 3.65092 27.6293 3.5969C26.5905 3.18694 25.0977 2.91341 24.1117 2.91341Z" fill="#123167"/>
<path d="M53.4281 3.10482L52.2289 9.03292H55.9325C57.9579 9.03292 59.3974 7.25753 59.3974 5.29014C59.3974 3.81499 58.4649 3.10482 56.7323 3.10482H53.4281ZM51.6692 11.7379L50.4165 17.9125H54.4141C56.7588 17.9125 58.0115 16.3279 58.0115 14.1694C58.0115 12.6129 56.7859 11.7379 55.1333 11.7379H51.6692ZM50.4428 1.24678C50.5763 0.645176 50.9762 0.263083 51.6157 0.263083H57.7983C61.0764 0.263083 62.9951 1.73863 62.9951 4.79803C62.9951 7.28461 61.3967 9.4699 59.1309 10.3988C60.5431 11.0003 61.529 12.3665 61.529 14.2513C61.529 17.9673 58.9711 20.7542 54.6535 20.7542H47.3787C46.8453 20.7542 46.5515 20.4807 46.5515 20.0437C46.5515 19.9618 46.5787 19.7432 46.6049 19.6334L50.4428 1.24678Z" fill="#123167"/>
<path d="M29.9844 20.7539H28.4125C27.9327 20.7539 27.6387 20.5355 27.6387 20.1801C27.6387 20.0434 27.6651 19.9069 27.7186 19.7701C30.5706 12.2846 35.074 4.14236 37.9787 0.262775H42.3227C43.2823 4.03366 44.721 11.7108 44.8279 19.7701C44.8279 20.3717 44.5079 20.7539 43.8684 20.7539H42.2429C41.6296 20.7539 41.2297 20.3717 41.2297 19.7701C41.1762 13.6234 40.2709 6.95623 39.4444 3.1864C36.646 7.44808 33.4214 13.951 31.2101 19.7701C30.9704 20.3717 30.5706 20.7539 29.9844 20.7539Z" fill="#123167"/>
<path d="M36.0127 12.2139C35.5511 11.9524 35.1733 12.1803 35.1733 12.721V16.9287C35.1733 17.4706 35.5511 17.6984 36.0127 17.4359L39.7741 15.3013C40.2357 15.0396 40.2357 14.611 39.7741 14.3487L36.0127 12.2139Z" fill="#123167"/>
</svg>

<svg width="63" height="21" viewBox="0 0 63 21" fill="none" xmlns="http://www.w3.org/2000/svg"><path d="M10.243 2.913h-.746c-2.238 0-3.97.93-3.97 2.951 0 1.311.932 1.885 1.971 2.377L9.95 9.333c2.025.902 3.758 2.296 3.758 5.165 0 4.097-3.012 6.474-7.809 6.474h-.88c-1.252 0-3.01-.327-4.263-.737-.48-.137-.747-.438-.747-.902 0-.082 0-.19.24-1.338.107-.465.374-.766.746-.766.107 0 .214 0 .347.055 1.173.465 2.932.82 4.184.82h.692c2.213 0 3.892-1.12 3.892-3.278 0-1.503-1.04-2.159-2.399-2.76l-2.319-1.038c-1.518-.71-3.41-2.213-3.41-4.917 0-3.99 3.49-6.066 7.887-6.066h.614c1.065 0 2.638.246 3.864.683.507.164.774.436.774.901 0 .082 0 .164-.214 1.23-.107.465-.4.819-.826.819a.795.795 0 01-.32-.081c-1.04-.41-2.532-.684-3.518-.684zm13.869 0h-.746c-2.239 0-3.971.93-3.971 2.951 0 1.311.932 1.885 1.972 2.377l2.452 1.092c2.025.902 3.758 2.296 3.758 5.165 0 4.097-3.012 6.474-7.81 6.474h-.878c-1.253 0-3.012-.327-4.264-.737-.48-.137-.747-.438-.747-.902 0-.082 0-.19.24-1.338.107-.465.373-.766.746-.766.107 0 .213 0 .347.055 1.172.465 2.931.82 4.184.82h.693c2.211 0 3.89-1.12 3.89-3.278 0-1.503-1.038-2.159-2.398-2.76l-2.318-1.038c-1.52-.71-3.412-2.213-3.412-4.917 0-3.99 3.491-6.066 7.889-6.066h.612c1.067 0 2.639.246 3.865.683.506.164.773.436.773.901 0 .082 0 .164-.213 1.23-.107.465-.4.819-.826.819a.795.795 0 01-.32-.081c-1.04-.41-2.532-.684-3.518-.684zm29.316.192l-1.2 5.928h3.704c2.026 0 3.465-1.775 3.465-3.743 0-1.475-.932-2.185-2.665-2.185h-3.304zm-1.759 8.633l-1.252 6.175h3.997c2.345 0 3.597-1.585 3.597-3.744 0-1.556-1.225-2.431-2.878-2.431H51.67zM50.443 1.247c.133-.602.533-.984 1.173-.984h6.182c3.278 0 5.197 1.476 5.197 4.535 0 2.487-1.598 4.672-3.864 5.6 1.412.602 2.398 1.969 2.398 3.853 0 3.716-2.558 6.503-6.876 6.503H47.38c-.534 0-.828-.273-.828-.71 0-.082.028-.3.054-.41l3.838-18.387zM29.984 20.754h-1.572c-.48 0-.773-.219-.773-.574 0-.137.026-.273.08-.41C30.57 12.285 35.074 4.142 37.979.263h4.344c.96 3.77 2.398 11.448 2.505 19.507 0 .602-.32.984-.96.984h-1.625c-.613 0-1.013-.382-1.013-.984-.054-6.147-.96-12.814-1.786-16.584-2.798 4.262-6.023 10.765-8.234 16.584-.24.602-.64.984-1.226.984z" fill="#123167"/><path d="M36.013 12.214c-.462-.262-.84-.034-.84.507v4.208c0 .542.378.77.84.507l3.761-2.135c.462-.261.462-.69 0-.952l-3.761-2.135z" fill="#123167"/></svg>
